packages/connectors/hull-hubspot/assets/picture.svg

<svg height="360" viewBox="0 0 640 360" width="640" xmlns="http://www.w3.org/2000/svg"><g fill="none" fill-rule="evenodd"><path d="m0 0h640v360h-640z" fill="#f8761f"/><g fill="#fff" transform="translate(137 127)"><path d="m.04269006 19.6911007h12.70171544v28.2159194h26.7887232v-28.2159194h12.7180799v69.2613959h-12.7180799v-28.8085234h-26.7887232v28.8085234h-12.70171544z"/><path d="m92.4901462 66.3929933c0 5.7979866-4.7243665 10.5160537-10.5216764 10.5160537-5.7994445 0-10.5209649-4.7180671-10.5209649-10.5160537v-29.8194363h-12.0457115v29.8194363c0 12.4404161 10.1239473 22.5595033 22.5666764 22.5595033 12.439883 0 22.5631192-10.1190872 22.5631192-22.5595033v-29.8194363h-12.0414428z"/><path d="m138.158548 36.9228591c-5.975185 0-10.146004 1.7337047-14.173811 5.6870067v-22.9187651h-12.084844v42.474698c0 15.8985771 11.496433 26.7866979 24.41231 26.7866979 14.358801 0 26.939561-11.0823355 26.939561-26.0141073 0-14.742537-11.601023-26.0155302-25.093216-26.0155302zm.300253 40.8512617c-8.188665 0-14.450585-6.8380671-14.450585-14.8357315 0-7.9990873 6.26192-14.8392886 14.450585-14.8392886 6.938558 0 13.204035 6.8402013 13.204035 14.8392886 0 7.9976644-6.265477 14.8357315-13.204035 14.8357315z"/><path d="m183.548752 39.9669799c0-6.0740135 4.047729-7.9997987 8.478958-7.9997987 3.567465 0 8.288274 2.6976644 11.369074 5.9744161l7.899795-9.2490335c-3.948119-5.2985772-11.944678-8.9609128-18.497602-8.9609128-13.10656 0-22.550312 7.6120805-22.550312 20.2353289 0 23.4124832 28.813655 15.9910604 28.813655 29.0980671 0 4.0422282-3.949542 7.6106577-8.476111 7.6106577-7.133509 0-9.44731-3.4688322-12.722349-7.1311678l-8.770673 9.0555302c5.592398 6.8416242 12.528109 10.3118792 20.816384 10.3118792 12.429922 0 22.452125-7.7081208 22.452125-19.7537047 0-26.013396-28.812944-17.9189799-28.812944-29.1912617"/><path d="m244.17575 36.2441745c-12.914454 0-24.412309 10.8817181-24.412309 26.7838523v42.5842552h12.084132v-23.0276109c4.028519 3.9504564 8.197203 5.6870068 14.174523 5.6870068 13.491481 0 25.093927-11.2715705 25.093927-26.0141074 0-14.9339061-12.584317-26.013396-26.940273-26.013396zm2.14731 40.8526846c-8.187953 0-14.450584-6.8473155-14.450584-14.8392886 0-7.9990873 6.262631-14.8392886 14.450584-14.8392886 6.937135 0 13.203324 6.8402013 13.203324 14.8392886 0 7.9919731-6.266189 14.8392886-13.203324 14.8392886z"/><path d="m360.068587 77.7741208c-7.127817 0-9.151326-3.0818255-9.151326-7.8048725v-20.9068993h11.079493v-10.5971544h-11.079493v-13.9720805l-12.234259 5.4906577v42.5871007c0 10.8888322 7.51345 16.3816241 17.819542 16.3816241 1.541822 0 3.66423-.0995973 4.821842-.3848724l2.987593-10.9827383c-1.349006.0931946-2.890117.1892349-4.243392.1892349"/><path d="m328.199747 49.6784295c-2.316648-3.9853154-5.575322-7.180255-9.649377-9.5855302-3.044512-1.7721208-6.201442-2.896859-9.758947-3.379906v-12.6630873c3.557505-1.5103221 5.765292-4.8532349 5.765292-8.7531812 0-5.31565097-4.263313-9.62323487-9.57538-9.62323487-5.316335 0-9.654356 4.3075839-9.654356 9.62323487 0 3.8999463 2.080428 7.2428591 5.637933 8.7531812v12.6687786c-2.846004.4111946-5.79731 1.2983221-8.492475 2.6613825-5.504883-4.1802416-23.555663-17.8940805-34.115049-25.9038389.250448-.9027785.443265-1.833302.443265-2.815047 0-5.88762415-4.76848-10.65975838-10.658996-10.65975838-5.890517 0-10.656862 4.77213423-10.656862 10.65975838 0 5.8869128 4.771326 10.6604698 10.661842 10.6604698 2.009279 0 3.86772-.5876242 5.471443-1.5537181l2.228421 1.6903087 30.620156 22.0593826c-1.618665 1.4861342-3.126335 3.1764429-4.33233 5.0730604-2.444005 3.86651-3.937446 8.1207382-3.937446 12.7612617v.9682282c0 3.2575436.619006 6.3329664 1.67345 9.222.928509 2.5226577 2.286053 4.8162416 3.96733 6.89l-10.162369 10.1859597c-.901471-.3322282-1.848479-.514349-2.836754-.514349-2.199961 0-4.263314.8593826-5.819366 2.4123893-1.557476 1.5572752-2.410566 3.6253423-2.410566 5.8264429.000712 2.2003893.85807 4.2684566 2.414835 5.8243086 1.556052 1.556564 3.624386 2.414524 5.82577 2.414524s4.270428-.85796 5.827904-2.414524c1.553918-1.555852 2.411988-3.6246307 2.411988-5.8243086 0-.851557-.131627-1.6824832-.37923-2.4721476l10.503889-10.5039597c1.440078.9945503 2.995419 1.8318792 4.667447 2.5539597 3.297807 1.4256644 6.937846 2.2942953 10.92154 2.2942953h.73c4.404191 0 8.558645-1.0343893 12.464074-3.1501208 4.115321-2.2359597 7.336286-5.2935973 9.769619-9.1971007 2.446141-3.9141745 3.793012-8.2388322 3.793012-12.9967382v-.2376108c0-4.6803624-1.083616-8.9986174-3.359707-12.9547651zm-12.834055 22.0344833c-2.850984 3.167906-6.128158 5.119302-9.832943 5.119302h-.610468c-2.116004 0-4.185761-.5847786-6.212115-1.6483356-2.283918-1.1709799-4.019981-2.8413691-5.440848-4.9563893-1.468538-2.0758926-2.265419-4.3424429-2.265419-6.7455839v-.729906c0-2.3625906.453226-4.6028188 1.595896-6.7185503 1.221647-2.312792 2.871618-4.1112349 5.065887-5.5411678 2.154425-1.4199732 4.455419-2.116443 7.018246-2.116443h.238353c2.323762 0 4.523723.4581477 6.599883 1.5202819 2.115292 1.1325638 3.843528 2.6798792 5.183284 4.7152215 1.301336 2.0360537 2.075449 4.2321745 2.324474 6.6246443.039133.4972751.059055 1.0066443.059055 1.4932483 0 3.2468725-1.240858 6.254-3.723285 8.9836779z"/></g></g></svg>

<?xml version="1.0" encoding="UTF-8"?>
<svg width="640px" height="360px" viewBox="0 0 640 360" version="1.1" xmlns="http://www.w3.org/2000/svg" xmlns:xlink="http://www.w3.org/1999/xlink">
    <!-- Generator: Sketch 50.2 (55047) - http://www.bohemiancoding.com/sketch -->
    <title>hubspot/picture</title>
    <desc>Created with Sketch.</desc>
    <defs></defs>
    <g id="hubspot/picture" stroke="none" stroke-width="1" fill="none" fill-rule="evenodd">
        <rect id="Rectangle" fill="#F8761F" x="0" y="0" width="640" height="360"></rect>
        <g id="Group" transform="translate(137.000000, 127.000000)" fill="#FFFFFF">
            <polygon id="Shape" points="0.0426900585 19.6911007 12.7444055 19.6911007 12.7444055 47.9070201 39.5331287 47.9070201 39.5331287 19.6911007 52.2512086 19.6911007 52.2512086 88.9524966 39.5331287 88.9524966 39.5331287 60.1439732 12.7444055 60.1439732 12.7444055 88.9524966 0.0426900585 88.9524966 0.0426900585 19.6911007"></polygon>
            <path d="M92.4901462,66.3929933 C92.4901462,72.1909799 87.7657797,76.909047 81.9684698,76.909047 C76.1690253,76.909047 71.4475049,72.1909799 71.4475049,66.3929933 L71.4475049,36.573557 L59.4017934,36.573557 L59.4017934,66.3929933 C59.4017934,78.8334094 69.5257407,88.9524966 81.9684698,88.9524966 C94.4083528,88.9524966 104.531589,78.8334094 104.531589,66.3929933 L104.531589,36.573557 L92.4901462,36.573557 L92.4901462,66.3929933" id="Shape"></path>
            <path d="M138.158548,36.9228591 C132.183363,36.9228591 128.012544,38.6565638 123.984737,42.6098658 L123.984737,19.6911007 L111.899893,19.6911007 L111.899893,62.1657987 C111.899893,78.0643758 123.396326,88.9524966 136.312203,88.9524966 C150.671004,88.9524966 163.251764,77.8701611 163.251764,62.9383893 C163.251764,48.1958523 151.650741,36.9228591 138.158548,36.9228591 L138.158548,36.9228591 L138.158548,36.9228591 Z M138.458801,77.7741208 C130.270136,77.7741208 124.008216,70.9360537 124.008216,62.9383893 C124.008216,54.939302 130.270136,48.0991007 138.458801,48.0991007 C145.397359,48.0991007 151.662836,54.939302 151.662836,62.9383893 C151.662836,70.9360537 145.397359,77.7741208 138.458801,77.7741208 L138.458801,77.7741208 L138.458801,77.7741208 Z" id="Shape"></path>
            <path d="M183.548752,39.9669799 C183.548752,33.8929664 187.596481,31.9671812 192.02771,31.9671812 C195.595175,31.9671812 200.315984,34.6648456 203.396784,37.9415973 L211.296579,28.6925638 C207.34846,23.3939866 199.351901,19.731651 192.798977,19.731651 C179.692417,19.731651 170.248665,27.3437315 170.248665,39.9669799 C170.248665,63.3794631 199.06232,55.9580403 199.06232,69.065047 C199.06232,73.1072752 195.112778,76.6757047 190.586209,76.6757047 C183.4527,76.6757047 181.138899,73.2068725 177.86386,69.5445369 L169.093187,78.6000671 C174.685585,85.4416913 181.621296,88.9119463 189.909571,88.9119463 C202.339493,88.9119463 212.361696,81.2038255 212.361696,69.1582416 C212.361696,43.1448456 183.548752,51.2392617 183.548752,39.9669799" id="Shape"></path>
            <path d="M244.17575,36.2441745 C231.261296,36.2441745 219.763441,47.1258926 219.763441,63.0280268 L219.763441,105.612282 L231.847573,105.612282 L231.847573,82.5846711 C235.876092,86.5351275 240.044776,88.2716779 246.022096,88.2716779 C259.513577,88.2716779 271.116023,77.0001074 271.116023,62.2575705 C271.116023,47.3236644 258.531706,36.2441745 244.17575,36.2441745 L244.17575,36.2441745 L244.17575,36.2441745 Z M246.32306,77.0968591 C238.135107,77.0968591 231.872476,70.2495436 231.872476,62.2575705 C231.872476,54.2584832 238.135107,47.4182819 246.32306,47.4182819 C253.260195,47.4182819 259.526384,54.2584832 259.526384,62.2575705 C259.526384,70.2495436 253.260195,77.0968591 246.32306,77.0968591 L246.32306,77.0968591 L246.32306,77.0968591 Z" id="Shape"></path>
            <path d="M360.068587,77.7741208 C352.94077,77.7741208 350.917261,74.6922953 350.917261,69.9692483 L350.917261,49.062349 L361.996754,49.062349 L361.996754,38.4651946 L350.917261,38.4651946 L350.917261,24.4931141 L338.683002,29.9837718 L338.683002,72.5708725 C338.683002,83.4597047 346.196452,88.9524966 356.502544,88.9524966 C358.044366,88.9524966 360.166774,88.8528993 361.324386,88.5676242 L364.311979,77.5848859 C362.962973,77.6780805 361.421862,77.7741208 360.068587,77.7741208" id="Shape"></path>
            <path d="M328.199747,49.6784295 C325.883099,45.6931141 322.624425,42.4981745 318.55037,40.0928993 C315.505858,38.3207785 312.348928,37.1960403 308.791423,36.7129933 L308.791423,24.049906 C312.348928,22.5395839 314.556715,19.1966711 314.556715,15.2967248 C314.556715,9.98107383 310.293402,5.67348993 304.981335,5.67348993 C299.665,5.67348993 295.326979,9.98107383 295.326979,15.2967248 C295.326979,19.1966711 297.407407,22.5395839 300.964912,24.049906 L300.964912,36.7186846 C298.118908,37.1298792 295.167602,38.0170067 292.472437,39.3800671 C286.967554,35.1998255 268.916774,21.4859866 258.357388,13.4762282 C258.607836,12.5734497 258.800653,11.6429262 258.800653,10.6611812 C258.800653,4.77355705 254.032173,0.00142281879 248.141657,0.00142281879 C242.25114,0.00142281879 237.484795,4.77355705 237.484795,10.6611812 C237.484795,16.548094 242.256121,21.321651 248.146637,21.321651 C250.155916,21.321651 252.014357,20.7340268 253.61808,19.7679329 L255.846501,21.4582416 L286.466657,43.5176242 C284.847992,45.0037584 283.340322,46.6940671 282.134327,48.5906846 C279.690322,52.4571946 278.196881,56.7114228 278.196881,61.3519463 L278.196881,62.3201745 C278.196881,65.5777181 278.815887,68.6531409 279.870331,71.5421745 C280.79884,74.0648322 282.156384,76.3584161 283.837661,78.4321745 L273.675292,88.6181342 C272.773821,88.285906 271.826813,88.1037852 270.838538,88.1037852 C268.638577,88.1037852 266.575224,88.9631678 265.019172,90.5161745 C263.461696,92.0734497 262.608606,94.1415168 262.608606,96.3426174 C262.609318,98.5430067 263.466676,100.611074 265.023441,102.166926 C266.579493,103.72349 268.647827,104.58145 270.849211,104.58145 C273.050595,104.58145 275.119639,103.72349 276.677115,102.166926 C278.231033,100.611074 279.089103,98.5422953 279.089103,96.3426174 C279.089103,95.4910604 278.957476,94.6601342 278.709873,93.8704698 L289.213762,83.3665101 C290.65384,84.3610604 292.209181,85.1983893 293.881209,85.9204698 C297.179016,87.3461342 300.819055,88.2147651 304.802749,88.2147651 L305.532749,88.2147651 C309.93694,88.2147651 314.091394,87.1803758 317.996823,85.0646443 C322.112144,82.8286846 325.333109,79.771047 327.766442,75.8675436 C330.212583,71.9533691 331.559454,67.6287114 331.559454,62.8708054 L331.559454,62.6331946 C331.559454,57.9528322 330.475838,53.6345772 328.199747,49.6784295 L328.199747,49.6784295 L328.199747,49.6784295 Z M315.365692,71.7129128 C312.514708,74.8808188 309.237534,76.8322148 305.532749,76.8322148 L304.922281,76.8322148 C302.806277,76.8322148 300.73652,76.2474362 298.710166,75.1838792 C296.426248,74.0128993 294.690185,72.3425101 293.269318,70.2274899 C291.80078,68.1515973 291.003899,65.885047 291.003899,63.481906 L291.003899,62.752 C291.003899,60.3894094 291.457125,58.1491812 292.599795,56.0334497 C293.821442,53.7206577 295.471413,51.9222148 297.665682,50.4922819 C299.820107,49.0723087 302.121101,48.3758389 304.683928,48.3758389 L304.922281,48.3758389 C307.246043,48.3758389 309.446004,48.8339866 311.522164,49.8961208 C313.637456,51.0286846 315.365692,52.576 316.705448,54.6113423 C318.006784,56.647396 318.780897,58.8435168 319.029922,61.2359866 C319.069055,61.7332617 319.088977,62.2426309 319.088977,62.7292349 C319.088977,65.9761074 317.848119,68.9832349 315.365692,71.7129128 L315.365692,71.7129128 L315.365692,71.7129128 Z" id="Shape"></path>
        </g>
    </g>
</svg>
